X: 554
%
U:~=!turn!
T: Rachel Rae
C:J. Lowe
O:Scotland
B:Keith Norman MacDonald : "The Skye collection of the best reels & strathspeys extant" : 1887
Z:Ralph Palmer
R:Reel
M:C
L:1/8
K:D
A, | D2 FA {/c}d2 (Ac) | {/c}d2 (fd) fedc | {/c}d2 (Ad) BA{/F}GF | E2 (AE) {/G}FDD :| A | {/c}defg {fg}a2 (fd) | g2 (bg) {fg}e2 {/d}cA |
{/c}defg {fg}a2 (fd) | Agfe fddA | {/c}defg fafd | {/f}g2 (bg) ee {/d}cA | {/c}d2 (Ad) BA{/F}GF | E2 (AE) {/G}FDD |]
W:This excellent Reel in in Mr. J. Lowe's best style and very popular.


